branches/nugui/src/gui/icons/measure_angle.svg

<?xml version="1.0" encoding="UTF-8" standalone="no"?>
<!-- Created with Inkscape (http://www.inkscape.org/) -->

<svg
   xmlns:dc="http://purl.org/dc/elements/1.1/"
   xmlns:cc="http://creativecommons.org/ns#"
   xmlns:rdf="http://www.w3.org/1999/02/22-rdf-syntax-ns#"
   xmlns:svg="http://www.w3.org/2000/svg"
   xmlns="http://www.w3.org/2000/svg"
   xmlns:xlink="http://www.w3.org/1999/xlink"
   xmlns:inkscape="http://www.inkscape.org/namespaces/inkscape"
   version="1.0"
   width="100"
   height="100"
   id="svg2">
  <metadata
     id="metadata2566">
    <rdf:RDF>
      <cc:Work
         rdf:about="">
        <dc:format>image/svg+xml</dc:format>
        <dc:type
           rdf:resource="http://purl.org/dc/dcmitype/StillImage" />
      </cc:Work>
    </rdf:RDF>
  </metadata>
  <defs
     id="defs4">
    <linearGradient
       id="linearGradient3187">
      <stop
         id="stop3189"
         style="stop-color:#cccdff;stop-opacity:1"
         offset="0" />
      <stop
         id="stop3191"
         style="stop-color:#cccdca;stop-opacity:0.33333334"
         offset="1" />
    </linearGradient>
    <linearGradient
       id="linearGradient3384">
      <stop
         id="stop3386"
         style="stop-color:#0000ff;stop-opacity:1"
         offset="0" />
      <stop
         id="stop3388"
         style="stop-color:#000000;stop-opacity:1"
         offset="1" />
    </linearGradient>
    <linearGradient
       id="linearGradient3252">
      <stop
         id="stop3254"
         style="stop-color:#ffffff;stop-opacity:1"
         offset="0" />
      <stop
         id="stop3256"
         style="stop-color:#7f7fff;stop-opacity:0"
         offset="1" />
    </linearGradient>
    <linearGradient
       x1="3.5899789"
       y1="36.400818"
       x2="97.023521"
       y2="36.400818"
       id="linearGradient3217"
       xlink:href="#linearGradient3187"
       gradientUnits="userSpaceOnUse" />
    <linearGradient
       x1="25.398125"
       y1="63.345894"
       x2="90.625114"
       y2="63.345894"
       id="linearGradient3554"
       xlink:href="#linearGradient3384"
       gradientUnits="userSpaceOnUse"
       gradientTransform="matrix(0.2688926,0.2688926,-0.2688926,0.2688926,38.227733,-8.4494346)" />
    <radialGradient
       cx="58.01162"
       cy="63.345894"
       r="33.113495"
       fx="58.01162"
       fy="63.345894"
       id="radialGradient3556"
       xlink:href="#linearGradient3252"
       gradientUnits="userSpaceOnUse"
       gradientTransform="matrix(0.2134373,0,0,0.2134373,19.805211,5.9610473)" />
  </defs>
  <path
     d="m 26.65819,28.427684 c 8.5e-4,4.883633 -3.95787,8.843053 -8.84151,8.843053 -4.88363,0 -8.84236,-3.95942 -8.8415,-8.843053 -8.6e-4,-4.883634 3.95787,-8.843054 8.8415,-8.843054 4.88364,0 8.84236,3.95942 8.84151,8.843054 l 0,0 z"
     inkscape:connector-curvature="0"
     id="path3691"
     style="fill:#eaede8;fill-opacity:1;fill-rule:evenodd;stroke:none" />
  <use
     transform="translate(21.837569,39.568928)"
     id="use2515"
     x="0"
     y="0"
     width="100"
     height="100"
     xlink:href="#path3691" />
  <use
     transform="translate(75.031646,22.957444)"
     id="use2517"
     x="0"
     y="0"
     width="100"
     height="100"
     xlink:href="#path3691" />
  <g
     transform="matrix(0.3686705,0.6772687,-0.6772687,0.3686705,65.198663,12.433035)"
     id="g3669"
     style="fill:#eef3f1;fill-opacity:1;stroke:none">
    <path
       d="m 96.52352,59.509204 c -29.455343,0 -51.469115,0 -92.433541,0 0,-25.511657 20.705113,-46.21677 46.21677,-46.21677 25.511657,0 46.216771,20.705113 46.216771,46.21677 z"
       inkscape:connector-curvature="0"
       id="path3671"
       style="fill:#eef3f1;fill-opacity:1;fill-rule:evenodd;stroke:none" />
    <path
       d="M 49.946865,59.191757 16.406253,44.970273 m 33.828912,13.928004 0.07159,-36.986598 M 50.611846,59.057108 84.207245,44.970273 M 87.000381,59.26463 49.946865,59.337502 13.613118,59.26463 M 24.360434,32.852106 50.10289,58.954052 36.264704,24.755004 m 28.084091,0 L 50.51061,58.954052 76.253065,32.852106"
       inkscape:connector-curvature="0"
       id="path3673"
       style="fill:#eef3f1;fill-opacity:1;fill-rule:evenodd;stroke:none" />
    <text
       x="16.601501"
       y="32.732803"
       id="text3675"
       xml:space="preserve"
       style="font-size:6.36857796px;font-style:normal;font-weight:normal;fill:#eef3f1;fill-opacity:1;stroke:none;font-family:Bitstream Vera Sans"><tspan
         x="16.601501"
         y="32.732803"
         id="tspan3677">45</tspan></text>
    <text
       x="45.530113"
       y="19.400709"
       id="text3679"
       xml:space="preserve"
       style="font-size:6.36857796px;font-style:normal;font-weight:normal;fill:#eef3f1;fill-opacity:1;stroke:none;font-family:Bitstream Vera Sans"><tspan
         x="45.530113"
         y="19.400709"
         id="tspan3681">90</tspan></text>
    <text
       x="72.773872"
       y="32.981483"
       id="text3683"
       xml:space="preserve"
       style="font-size:6.36857796px;font-style:normal;font-weight:normal;fill:#eef3f1;fill-opacity:1;stroke:none;font-family:Bitstream Vera Sans"><tspan
         x="72.773872"
         y="32.981483"
         id="tspan3685">135</tspan></text>
  </g>
  <path
     d="M 18.4239,28.683634 C 41.42722,70.513443 40.77595,70.923693 40.77595,70.923693"
     inkscape:connector-curvature="0"
     id="path3687"
     style="fill:none;stroke:#e8edea;stroke-width:3;stroke-linecap:round;stroke-linejoin:round;stroke-miterlimit:4;stroke-opacity:1;stroke-dasharray:3, 3;stroke-dashoffset:0" />
  <path
     d="M 91.209695,53.226538 C 39.58218,69.316272 41.04386,69.474074 41.04386,69.474074"
     inkscape:connector-curvature="0"
     id="path3697"
     style="fill:none;stroke:#e8edea;stroke-width:2.78739214;stroke-linecap:round;stroke-linejoin:round;stroke-miterlimit:4;stroke-opacity:1;stroke-dasharray:2.78739208, 2.78739208;stroke-dashoffset:0" />
  <g
     transform="matrix(0.3686705,0.6772687,-0.6772687,0.3686705,59.897473,-0.7809528)"
     id="g3207">
    <path
       d="m 96.52352,59.509204 c -29.455343,0 -51.469115,0 -92.433541,0 0,-25.511657 20.705113,-46.21677 46.21677,-46.21677 25.511657,0 46.216771,20.705113 46.216771,46.21677 z"
       inkscape:connector-curvature="0"
       id="path2200"
       style="fill:url(#linearGradient3217);fill-opacity:1;fill-rule:evenodd;stroke:#000000;stroke-width:1px;stroke-linecap:butt;stroke-linejoin:miter;stroke-opacity:1" />
    <path
       d="M 49.946865,59.191757 16.406253,44.970273 m 33.828912,13.928004 0.07159,-36.986598 M 50.611846,59.057108 84.207245,44.970273 M 87.000381,59.26463 49.946865,59.337502 13.613118,59.26463 M 24.360434,32.852106 50.10289,58.954052 36.264704,24.755004 m 28.084091,0 L 50.51061,58.954052 76.253065,32.852106"
       inkscape:connector-curvature="0"
       id="path3183"
       style="fill:none;stroke:#000000;stroke-width:0.64609098;stroke-linecap:round;stroke-linejoin:round;stroke-miterlimit:4;stroke-opacity:1;stroke-dasharray:none;stroke-dashoffset:0" />
    <text
       x="16.601501"
       y="32.732803"
       id="text3195"
       xml:space="preserve"
       style="font-size:6.36857796px;font-style:normal;font-weight:normal;fill:#000000;fill-opacity:1;stroke:none;font-family:Bitstream Vera Sans"><tspan
         x="16.601501"
         y="32.732803"
         id="tspan3197">45</tspan></text>
    <text
       x="45.530113"
       y="19.400709"
       id="text3199"
       xml:space="preserve"
       style="font-size:6.36857796px;font-style:normal;font-weight:normal;fill:#000000;fill-opacity:1;stroke:none;font-family:Bitstream Vera Sans"><tspan
         x="45.530113"
         y="19.400709"
         id="tspan3201">90</tspan></text>
    <text
       x="72.773872"
       y="32.981483"
       id="text3203"
       xml:space="preserve"
       style="font-size:6.36857796px;font-style:normal;font-weight:normal;fill:#000000;fill-opacity:1;stroke:none;font-family:Bitstream Vera Sans"><tspan
         x="72.773872"
         y="32.981483"
         id="tspan3205">135</tspan></text>
  </g>
  <path
     d="M 13.12271,15.469647 C 36.126035,57.299456 35.474761,57.709706 35.474761,57.709706"
     inkscape:connector-curvature="0"
     id="path2696"
     style="fill:none;stroke:#000000;stroke-width:3;stroke-linecap:round;stroke-linejoin:round;stroke-miterlimit:4;stroke-opacity:1;stroke-dasharray:3, 3;stroke-dashoffset:0" />
  <g
     transform="matrix(0.7129105,0,0,0.7129105,-13.623221,-2.0592625)"
     id="g3546">
    <path
       d="m 49.066773,24.22879 c 0.0012,6.850275 -5.551709,12.404157 -12.401985,12.404157 -6.850275,0 -12.403184,-5.553882 -12.401985,-12.404157 -0.0012,-6.850276 5.55171,-12.404157 12.401985,-12.404157 6.850276,0 12.403184,5.553881 12.401985,12.404157 l 0,0 z"
       inkscape:connector-curvature="0"
       id="path3548"
       style="fill:#0000ff;fill-opacity:1;fill-rule:evenodd;stroke:#000000;stroke-width:0.38027155px;stroke-linecap:butt;stroke-linejoin:miter;stroke-opacity:1" />
    <path
       d="m 45.562914,32.95223 c -4.843029,4.844723 -12.696715,4.845411 -17.54059,0.0015 -4.843878,-4.843877 -4.843189,-12.697563 0.0015,-17.54059 4.843028,-4.844725 12.696714,-4.845413 17.540591,-0.0015 4.843875,4.843876 4.843187,12.697563 -0.0015,17.540591 l 0,0 z"
       inkscape:connector-curvature="0"
       id="path3550"
       style="opacity:0.71739131;fill:url(#linearGradient3554);fill-opacity:1;fill-rule:evenodd;stroke:none" />
    <path
       d="m 39.147988,19.481422 c 6.73e-4,3.844893 -3.11604,6.962154 -6.960935,6.962154 -3.844894,0 -6.961608,-3.117261 -6.960935,-6.962154 -6.73e-4,-3.844895 3.116041,-6.962154 6.960935,-6.962154 3.844895,0 6.961608,3.117259 6.960935,6.962154 l 0,0 z"
       inkscape:connector-curvature="0"
       id="path3552"
       style="fill:url(#radialGradient3556);fill-opacity:1;fill-rule:evenodd;stroke:none" />
  </g>
  <path
     d="M 85.908505,40.012551 C 34.280987,56.102285 35.742674,56.260087 35.742674,56.260087"
     inkscape:connector-curvature="0"
     id="path3667"
     style="fill:none;stroke:#000000;stroke-width:2.78739214;stroke-linecap:round;stroke-linejoin:round;stroke-miterlimit:4;stroke-opacity:1;stroke-dasharray:2.78739208, 2.78739208;stroke-dashoffset:0" />
  <use
     transform="translate(73.725125,24.637257)"
     id="use2508"
     x="0"
     y="0"
     width="100"
     height="100"
     xlink:href="#g3546" />
  <use
     transform="translate(22.584152,40.688803)"
     id="use2506"
     x="0"
     y="0"
     width="100"
     height="100"
     xlink:href="#g3546" />
</svg>

<?xml version="1.0" encoding="UTF-8" standalone="no"?>
<!-- Created with Inkscape (http://www.inkscape.org/) -->
<svg
   xmlns:dc="http://purl.org/dc/elements/1.1/"
   xmlns:cc="http://web.resource.org/cc/"
   xmlns:rdf="http://www.w3.org/1999/02/22-rdf-syntax-ns#"
   xmlns:svg="http://www.w3.org/2000/svg"
   xmlns="http://www.w3.org/2000/svg"
   xmlns:xlink="http://www.w3.org/1999/xlink"
   xmlns:sodipodi="http://sodipodi.sourceforge.net/DTD/sodipodi-0.dtd"
   xmlns:inkscape="http://www.inkscape.org/namespaces/inkscape"
   version="1.0"
   width="100"
   height="100"
   id="svg2"
   sodipodi:version="0.32"
   inkscape:version="0.45.1"
   sodipodi:docname="measure_angle.svg"
   sodipodi:docbase="/home/tris/src/aten/src/gui-qt/icons"
   inkscape:output_extension="org.inkscape.output.svg.inkscape">
  <metadata
     id="metadata2566">
    <rdf:RDF>
      <cc:Work
         rdf:about="">
        <dc:format>image/svg+xml</dc:format>
        <dc:type
           rdf:resource="http://purl.org/dc/dcmitype/StillImage" />
      </cc:Work>
    </rdf:RDF>
  </metadata>
  <sodipodi:namedview
     inkscape:window-height="714"
     inkscape:window-width="1024"
     inkscape:pageshadow="2"
     inkscape:pageopacity="0.0"
     guidetolerance="10.0"
     gridtolerance="10.0"
     objecttolerance="10.0"
     borderopacity="1.0"
     bordercolor="#666666"
     pagecolor="#ffffff"
     id="base"
     inkscape:zoom="5.3577393"
     inkscape:cx="51.763918"
     inkscape:cy="47.010113"
     inkscape:window-x="0"
     inkscape:window-y="29"
     inkscape:current-layer="svg2"
     showguides="true"
     inkscape:guide-bbox="true" />
  <defs
     id="defs4">
    <linearGradient
       id="linearGradient3187">
      <stop
         style="stop-color:#cccdff;stop-opacity:1;"
         offset="0"
         id="stop3189" />
      <stop
         style="stop-color:#cccdca;stop-opacity:0.33333334;"
         offset="1"
         id="stop3191" />
    </linearGradient>
    <linearGradient
       id="linearGradient3384">
      <stop
         style="stop-color:#0000ff;stop-opacity:1;"
         offset="0"
         id="stop3386" />
      <stop
         style="stop-color:#000000;stop-opacity:1"
         offset="1"
         id="stop3388" />
    </linearGradient>
    <linearGradient
       id="linearGradient3252">
      <stop
         style="stop-color:#ffffff;stop-opacity:1"
         offset="0"
         id="stop3254" />
      <stop
         style="stop-color:#7f7fff;stop-opacity:0;"
         offset="1"
         id="stop3256" />
    </linearGradient>
    <radialGradient
       inkscape:collect="always"
       xlink:href="#linearGradient3252"
       id="radialGradient3562"
       gradientUnits="userSpaceOnUse"
       gradientTransform="matrix(0.2134373,0,0,0.2134373,19.805211,5.9610473)"
       cx="58.01162"
       cy="63.345894"
       fx="58.01162"
       fy="63.345894"
       r="33.113495" />
    <linearGradient
       inkscape:collect="always"
       xlink:href="#linearGradient3384"
       id="linearGradient3565"
       gradientUnits="userSpaceOnUse"
       gradientTransform="matrix(0.2688926,0.2688926,-0.2688926,0.2688926,38.227733,-8.4494346)"
       x1="25.398125"
       y1="63.345894"
       x2="90.625114"
       y2="63.345894" />
    <linearGradient
       inkscape:collect="always"
       xlink:href="#linearGradient3187"
       id="linearGradient3217"
       gradientUnits="userSpaceOnUse"
       x1="3.589979"
       y1="36.400819"
       x2="97.02352"
       y2="36.400819" />
    <linearGradient
       inkscape:collect="always"
       xlink:href="#linearGradient3384"
       id="linearGradient3554"
       gradientUnits="userSpaceOnUse"
       gradientTransform="matrix(0.2688926,0.2688926,-0.2688926,0.2688926,38.227733,-8.4494346)"
       x1="25.398125"
       y1="63.345894"
       x2="90.625114"
       y2="63.345894" />
    <radialGradient
       inkscape:collect="always"
       xlink:href="#linearGradient3252"
       id="radialGradient3556"
       gradientUnits="userSpaceOnUse"
       gradientTransform="matrix(0.2134373,0,0,0.2134373,19.805211,5.9610473)"
       cx="58.01162"
       cy="63.345894"
       fx="58.01162"
       fy="63.345894"
       r="33.113495" />
    <linearGradient
       inkscape:collect="always"
       xlink:href="#linearGradient3384"
       id="linearGradient3566"
       gradientUnits="userSpaceOnUse"
       gradientTransform="matrix(0.2688926,0.2688926,-0.2688926,0.2688926,38.227733,-8.4494346)"
       x1="25.398125"
       y1="63.345894"
       x2="90.625114"
       y2="63.345894" />
    <radialGradient
       inkscape:collect="always"
       xlink:href="#linearGradient3252"
       id="radialGradient3568"
       gradientUnits="userSpaceOnUse"
       gradientTransform="matrix(0.2134373,0,0,0.2134373,19.805211,5.9610473)"
       cx="58.01162"
       cy="63.345894"
       fx="58.01162"
       fy="63.345894"
       r="33.113495" />
  </defs>
  <path
     id="path3691"
     style="fill:#eaede8;fill-opacity:1;fill-rule:evenodd;stroke:none;stroke-width:0.2710996px;stroke-linecap:butt;stroke-linejoin:miter;stroke-opacity:1"
     d="M 26.65819,28.427684 C 26.65904,33.311317 22.70032,37.270737 17.81668,37.270737 C 12.93305,37.270737 8.97432,33.311317 8.97518,28.427684 C 8.97432,23.54405 12.93305,19.58463 17.81668,19.58463 C 22.70032,19.58463 26.65904,23.54405 26.65819,28.427684 L 26.65819,28.427684 z " />
  <use
     x="0"
     y="0"
     xlink:href="#path3691"
     id="use2515"
     transform="translate(21.837569,39.568928)"
     width="100"
     height="100" />
  <use
     x="0"
     y="0"
     xlink:href="#path3691"
     id="use2517"
     transform="translate(75.031646,22.957444)"
     width="100"
     height="100" />
  <g
     id="g3669"
     transform="matrix(0.3686705,0.6772687,-0.6772687,0.3686705,65.198663,12.433035)"
     style="fill:#eef3f1;fill-opacity:1;stroke:none;stroke-opacity:1">
    <path
       sodipodi:nodetypes="ccsc"
       id="path3671"
       d="M 96.52352,59.509204 C 67.068177,59.509204 45.054405,59.509204 4.089979,59.509204 C 4.089979,33.997547 24.795092,13.292434 50.306749,13.292434 C 75.818406,13.292434 96.52352,33.997547 96.52352,59.509204 z "
       style="fill:#eef3f1;fill-opacity:1;fill-rule:evenodd;stroke:none;stroke-width:1px;stroke-linecap:butt;stroke-linejoin:miter;stroke-opacity:1" />
    <path
       sodipodi:nodetypes="ccccccccccccccc"
       id="path3673"
       d="M 49.946865,59.191757 L 16.406253,44.970273 M 50.235165,58.898277 L 50.306751,21.911679 M 50.611846,59.057108 L 84.207245,44.970273 M 87.000381,59.26463 L 49.946865,59.337502 L 13.613118,59.26463 M 24.360434,32.852106 L 50.10289,58.954052 L 36.264704,24.755004 M 64.348795,24.755004 L 50.51061,58.954052 L 76.253065,32.852106"
       style="fill:#eef3f1;fill-opacity:1;fill-rule:evenodd;stroke:none;stroke-width:0.64609098;stroke-linecap:round;stroke-linejoin:round;stroke-miterlimit:4;stroke-dasharray:none;stroke-dashoffset:0;stroke-opacity:1" />
    <text
       id="text3675"
       y="32.732803"
       x="16.601501"
       style="font-size:6.36857796px;font-style:normal;font-weight:normal;fill:#eef3f1;fill-opacity:1;stroke:none;stroke-width:1px;stroke-linecap:butt;stroke-linejoin:miter;stroke-opacity:1;font-family:Bitstream Vera Sans"
       xml:space="preserve"><tspan
         y="32.732803"
         x="16.601501"
         id="tspan3677"
         sodipodi:role="line">45</tspan></text>
    <text
       id="text3679"
       y="19.400709"
       x="45.530113"
       style="font-size:6.36857796px;font-style:normal;font-weight:normal;fill:#eef3f1;fill-opacity:1;stroke:none;stroke-width:1px;stroke-linecap:butt;stroke-linejoin:miter;stroke-opacity:1;font-family:Bitstream Vera Sans"
       xml:space="preserve"><tspan
         y="19.400709"
         x="45.530113"
         id="tspan3681"
         sodipodi:role="line">90</tspan></text>
    <text
       id="text3683"
       y="32.981483"
       x="72.773872"
       style="font-size:6.36857796px;font-style:normal;font-weight:normal;fill:#eef3f1;fill-opacity:1;stroke:none;stroke-width:1px;stroke-linecap:butt;stroke-linejoin:miter;stroke-opacity:1;font-family:Bitstream Vera Sans"
       xml:space="preserve"><tspan
         y="32.981483"
         x="72.773872"
         id="tspan3685"
         sodipodi:role="line">135</tspan></text>
  </g>
  <path
     style="fill:none;fill-rule:evenodd;stroke:#e8edea;stroke-width:3;stroke-linecap:round;stroke-linejoin:round;stroke-miterlimit:4;stroke-dasharray:3, 3;stroke-dashoffset:0;stroke-opacity:1"
     d="M 18.4239,28.683634 C 41.42722,70.513443 40.77595,70.923693 40.77595,70.923693"
     id="path3687" />
  <path
     style="fill:none;fill-rule:evenodd;stroke:#e8edea;stroke-width:2.78739214;stroke-linecap:round;stroke-linejoin:round;stroke-miterlimit:4;stroke-dasharray:2.78739208, 2.78739208;stroke-dashoffset:0;stroke-opacity:1"
     d="M 91.209695,53.226538 C 39.58218,69.316272 41.04386,69.474074 41.04386,69.474074"
     id="path3697" />
  <g
     id="g3207"
     transform="matrix(0.3686705,0.6772687,-0.6772687,0.3686705,59.897473,-0.7809528)">
    <path
       sodipodi:nodetypes="ccsc"
       id="path2200"
       d="M 96.52352,59.509204 C 67.068177,59.509204 45.054405,59.509204 4.089979,59.509204 C 4.089979,33.997547 24.795092,13.292434 50.306749,13.292434 C 75.818406,13.292434 96.52352,33.997547 96.52352,59.509204 z "
       style="fill:url(#linearGradient3217);fill-opacity:1;fill-rule:evenodd;stroke:#000000;stroke-width:1px;stroke-linecap:butt;stroke-linejoin:miter;stroke-opacity:1" />
    <path
       sodipodi:nodetypes="ccccccccccccccc"
       id="path3183"
       d="M 49.946865,59.191757 L 16.406253,44.970273 M 50.235165,58.898277 L 50.306751,21.911679 M 50.611846,59.057108 L 84.207245,44.970273 M 87.000381,59.26463 L 49.946865,59.337502 L 13.613118,59.26463 M 24.360434,32.852106 L 50.10289,58.954052 L 36.264704,24.755004 M 64.348795,24.755004 L 50.51061,58.954052 L 76.253065,32.852106"
       style="fill:none;fill-opacity:1;fill-rule:evenodd;stroke:#000000;stroke-width:0.64609098;stroke-linecap:round;stroke-linejoin:round;stroke-miterlimit:4;stroke-dasharray:none;stroke-dashoffset:0;stroke-opacity:1" />
    <text
       id="text3195"
       y="32.732803"
       x="16.601501"
       style="font-size:6.36857796px;font-style:normal;font-weight:normal;fill:#000000;fill-opacity:1;stroke:none;stroke-width:1px;stroke-linecap:butt;stroke-linejoin:miter;stroke-opacity:1;font-family:Bitstream Vera Sans"
       xml:space="preserve"><tspan
         y="32.732803"
         x="16.601501"
         id="tspan3197"
         sodipodi:role="line">45</tspan></text>
    <text
       id="text3199"
       y="19.400709"
       x="45.530113"
       style="font-size:6.36857796px;font-style:normal;font-weight:normal;fill:#000000;fill-opacity:1;stroke:none;stroke-width:1px;stroke-linecap:butt;stroke-linejoin:miter;stroke-opacity:1;font-family:Bitstream Vera Sans"
       xml:space="preserve"><tspan
         y="19.400709"
         x="45.530113"
         id="tspan3201"
         sodipodi:role="line">90</tspan></text>
    <text
       id="text3203"
       y="32.981483"
       x="72.773872"
       style="font-size:6.36857796px;font-style:normal;font-weight:normal;fill:#000000;fill-opacity:1;stroke:none;stroke-width:1px;stroke-linecap:butt;stroke-linejoin:miter;stroke-opacity:1;font-family:Bitstream Vera Sans"
       xml:space="preserve"><tspan
         y="32.981483"
         x="72.773872"
         id="tspan3205"
         sodipodi:role="line">135</tspan></text>
  </g>
  <path
     style="fill:none;fill-rule:evenodd;stroke:#000000;stroke-width:3;stroke-linecap:round;stroke-linejoin:round;stroke-miterlimit:4;stroke-dasharray:3, 3;stroke-dashoffset:0;stroke-opacity:1"
     d="M 13.12271,15.469647 C 36.126035,57.299456 35.474761,57.709706 35.474761,57.709706"
     id="path2696" />
  <g
     id="g3546"
     transform="matrix(0.7129105,0,0,0.7129105,-13.623221,-2.0592625)">
    <path
       d="M 49.066773,24.22879 C 49.067972,31.079065 43.515064,36.632947 36.664788,36.632947 C 29.814513,36.632947 24.261604,31.079065 24.262803,24.22879 C 24.261604,17.378514 29.814513,11.824633 36.664788,11.824633 C 43.515064,11.824633 49.067972,17.378514 49.066773,24.22879 L 49.066773,24.22879 z "
       style="fill:#0000ff;fill-opacity:1;fill-rule:evenodd;stroke:#000000;stroke-width:0.38027155px;stroke-linecap:butt;stroke-linejoin:miter;stroke-opacity:1"
       id="path3548" />
    <path
       d="M 45.562914,32.95223 C 40.719885,37.796953 32.866199,37.797641 28.022324,32.953766 C 23.178446,28.109889 23.179135,20.256203 28.023859,15.413176 C 32.866887,10.568451 40.720573,10.567763 45.56445,15.411639 C 50.408325,20.255515 50.407637,28.109202 45.562914,32.95223 L 45.562914,32.95223 z "
       style="opacity:0.71739131;fill:url(#linearGradient3554);fill-opacity:1;fill-rule:evenodd;stroke:none;stroke-width:1px;stroke-linecap:butt;stroke-linejoin:miter;stroke-opacity:1"
       id="path3550" />
    <path
       d="M 39.147988,19.481422 C 39.148661,23.326315 36.031948,26.443576 32.187053,26.443576 C 28.342159,26.443576 25.225445,23.326315 25.226118,19.481422 C 25.225445,15.636527 28.342159,12.519268 32.187053,12.519268 C 36.031948,12.519268 39.148661,15.636527 39.147988,19.481422 L 39.147988,19.481422 z "
       style="fill:url(#radialGradient3556);fill-opacity:1;fill-rule:evenodd;stroke:none;stroke-width:1px;stroke-linecap:butt;stroke-linejoin:miter;stroke-opacity:1"
       id="path3552" />
  </g>
  <path
     style="fill:none;fill-rule:evenodd;stroke:#000000;stroke-width:2.78739214;stroke-linecap:round;stroke-linejoin:round;stroke-miterlimit:4;stroke-dasharray:2.78739208, 2.78739208;stroke-dashoffset:0;stroke-opacity:1"
     d="M 85.908505,40.012551 C 34.280987,56.102285 35.742674,56.260087 35.742674,56.260087"
     id="path3667" />
  <use
     x="0"
     y="0"
     xlink:href="#g3546"
     id="use2508"
     transform="translate(73.725125,24.637257)"
     width="100"
     height="100" />
  <use
     x="0"
     y="0"
     xlink:href="#g3546"
     id="use2506"
     transform="translate(22.584152,40.688803)"
     width="100"
     height="100" />
</svg>
